public/iconset/Star.svg

<?xml version="1.0" encoding="UTF-8"?>
<svg width="24px" height="24px" viewBox="0 0 24 24" version="1.1" xmlns="http://www.w3.org/2000/svg" xmlns:xlink="http://www.w3.org/1999/xlink">
    <!-- Generator: Sketch 48.1 (47250) - http://www.bohemiancoding.com/sketch -->
    <title>24x24</title>
    <desc>Created with Sketch.</desc>
    <defs></defs>
    <g id="Page-1" stroke="none" stroke-width="1" fill="none" fill-rule="evenodd">
        <g id="Star">
            <rect id="24x24" x="0" y="0" width="24" height="24"></rect>
            <path d="M19.0002901,10.3024405 C18.8989155,9.91050874 18.5712389,9.61836335 18.1702901,9.56244048 L14.5302901,9.03244048 L12.9302901,5.63244048 C12.7794405,5.25076047 12.4106988,5 12.0002901,5 C11.5898815,5 11.2211397,5.25076047 11.0702901,5.63244048 L9.47029014,9.03244048 L5.88029014,9.58244048 C5.47934134,9.63836335 5.15166475,9.93050874 5.05029014,10.3224405 C4.92980116,10.7090826 5.02944644,11.1306588 5.31029014,11.4224405 L7.89029014,14.0324405 L7.27029014,17.7524405 C7.19806746,18.1575311 7.35586237,18.5693374 7.68029014,18.8224405 C7.9977792,19.0671728 8.43073182,19.0986603 8.78029014,18.9024405 L12.0002901,17.1324405 L15.2102901,18.9024405 C15.5573492,19.0942426 15.9849536,19.0628588 16.3002901,18.8224405 C16.6305896,18.5778148 16.7934016,18.1669082 16.7202901,17.7624405 L16.0902901,14.0324405 L18.6902901,11.4024405 C18.9889448,11.1212252 19.1081552,10.6982204 19.0002901,10.3024405 Z M15.2902901,13.1424405 C15.0370249,13.4097209 14.9192457,13.7777809 14.9702901,14.1424405 L15.5502901,17.7024405 L12.5502901,16.0224405 C12.2374609,15.8570959 11.8631193,15.8570959 11.5502901,16.0224405 L8.55029014,17.7024405 L9.00029014,14.1724405 C9.05178562,13.8059264 8.92981484,13.4363179 8.67029014,13.1724405 L6.20029014,10.6224405 L9.59029014,10.1024405 C9.96260961,10.0498795 10.2807921,9.80745468 10.4302901,9.46244048 L12.0002901,6.23244048 L13.5202901,9.46244048 C13.6697881,9.80745468 13.9879707,10.0498795 14.3602901,10.1024405 L17.7502901,10.6224405 L15.2902901,13.1424405 Z" id="Shape" fill="#000000" fill-rule="nonzero"></path>
        </g>
    </g>
</svg>

<svg id="target" xmlns="http://www.w3.org/2000/svg" viewBox="0 0 24 24"><title>Star</title><path d="M19,10.27a1,1,0,0,0-.83-.74L14.53,9,12.93,5.6a1,1,0,0,0-1.86,0L9.47,9l-3.59.55a1,1,0,0,0-.83.74,1.11,1.11,0,0,0,.26,1.1L7.89,14l-.62,3.72a1.11,1.11,0,0,0,.41,1.07,1,1,0,0,0,1.1.08L12,17.1l3.21,1.77a1,1,0,0,0,1.09-.08,1.08,1.08,0,0,0,.42-1.06L16.09,14l2.6-2.63A1.11,1.11,0,0,0,19,10.27Zm-3.71,2.84a1.21,1.21,0,0,0-.32,1l.58,3.56-3-1.68a1.07,1.07,0,0,0-1,0l-3,1.68L9,14.14a1.19,1.19,0,0,0-.33-1L6.2,10.59l3.39-.52a1.08,1.08,0,0,0,.84-.64L12,6.2l1.52,3.23a1.08,1.08,0,0,0,.84.64l3.39.52Z"/></svg>
